X: 28057
T: Mr Baird Of Newbyth's Jigg
R: jig
M: 6/8
K: Eminor
d|B2 E EGE|BGE BGE|F2 D DFD|AFD AFD|
B2 E EGE|BGE BGE|BdB AFA|BG E2:|:a|^g2 (ee)ge|
^geg geg|f2 (dd)fa|afa aba|^g (ee)ge|
^geg geg|fdf ecA|BGE E2:|

